assets/images/line.svg

<svg width="48" height="48" viewBox="0 0 48 48" fill="none" xmlns="http://www.w3.org/2000/svg">
<g id="Group 359">
<circle id="Ellipse 16" cx="24" cy="24" r="24" fill="#FFB445"/>
<g id="Group 32">
<path id="Intersect" d="M24.0002 11.2974C31.9374 11.2974 38.4002 16.5418 38.4002 22.9869C38.4002 25.5649 37.4026 27.8869 35.3189 30.1825C32.2906 33.6611 25.5365 37.899 24.0002 38.5435C22.5106 39.1684 22.6812 38.1913 22.7493 37.8014L22.7553 37.7665C22.7739 37.6559 22.7919 37.5492 22.8094 37.4462C23.1495 35.4378 23.247 34.8618 21.6429 34.5175C14.721 33.5993 9.60022 28.761 9.60022 22.9869C9.60022 16.5418 16.063 11.2974 24.0002 11.2974Z" fill="white"/>
<g id="Intersect_2">
<path d="M28.3084 26.4299V20.1526C28.3084 20.0025 28.176 19.87 28.017 19.8789H27.0105C26.8516 19.8789 26.728 20.0025 26.728 20.1614V23.8872L23.8498 20.0025C23.8056 19.923 23.7085 19.8789 23.6202 19.8789H22.6226C22.4636 19.8789 22.34 20.0025 22.34 20.1614V26.4388C22.34 26.5977 22.4636 26.7213 22.6226 26.7213H23.6291C23.788 26.7213 23.9116 26.5977 23.9116 26.4388V22.7129L26.7898 26.5977C26.834 26.6595 26.9223 26.7125 27.0194 26.7125H28.0259C28.1848 26.7125 28.3084 26.5888 28.3084 26.4299Z" fill="#FFB445"/>
<path d="M20.0622 19.87H21.0687C21.2276 19.87 21.3512 20.0025 21.3512 20.1526V26.4299C21.3512 26.5888 21.2276 26.7125 21.0687 26.7125H20.0622C19.9033 26.7125 19.7796 26.5888 19.7796 26.4299V20.1526C19.7796 19.9936 19.9033 19.87 20.0622 19.87Z" fill="#FFB445"/>
<path d="M15.8949 25.1321H18.6407C18.7908 25.1321 18.9144 25.2645 18.9144 25.4146V26.4211C18.9144 26.58 18.7908 26.7036 18.6319 26.7036H14.5971C14.5176 26.7036 14.4558 26.6683 14.4028 26.6242C14.3499 26.5712 14.3234 26.5094 14.3234 26.4299V20.1526C14.3234 19.9936 14.447 19.87 14.6059 19.87H15.6124C15.7713 19.87 15.8949 19.9936 15.8949 20.1526V25.1321Z" fill="#FFB445"/>
<path d="M29.5709 19.87H33.6058C33.7559 19.87 33.8795 20.0025 33.8883 20.1526V21.1591C33.8883 21.318 33.7647 21.4416 33.6058 21.4416H30.86V22.501H33.6058C33.7647 22.501 33.8883 22.6247 33.8883 22.7836V23.7989C33.8883 23.9578 33.7647 24.0814 33.6058 24.0814H30.86V25.1409H33.6058C33.7647 25.1409 33.8883 25.2645 33.8883 25.4234V26.4299C33.8883 26.5888 33.7647 26.7125 33.6058 26.7125H29.5709C29.412 26.7125 29.2884 26.58 29.2884 26.4299V20.1526C29.2884 19.9936 29.4208 19.87 29.5709 19.87Z" fill="#FFB445"/>
</g>
</g>
</g>
</svg>

<svg width="48" height="48" fill="none" xmlns="http://www.w3.org/2000/svg"><circle cx="24" cy="24" r="24" fill="#FFB445"/><path d="M24 11.297c7.937 0 14.4 5.245 14.4 11.69 0 2.578-.997 4.9-3.081 7.196-3.028 3.478-9.783 7.716-11.319 8.36-1.49.625-1.319-.352-1.25-.742l.005-.035.054-.32c.34-2.008.438-2.584-1.166-2.928C14.72 33.599 9.6 28.76 9.6 22.986c0-6.445 6.463-11.69 14.4-11.69Z" fill="#fff"/><g fill="#FFB445"><path d="M28.308 26.43v-6.277a.28.28 0 0 0-.291-.274h-1.006a.279.279 0 0 0-.283.282v3.726l-2.878-3.884c-.044-.08-.142-.124-.23-.124h-.997a.279.279 0 0 0-.283.282v6.278c0 .159.124.282.283.282h1.006a.279.279 0 0 0 .283-.282v-3.726l2.878 3.885a.292.292 0 0 0 .23.114h1.006a.279.279 0 0 0 .282-.282ZM20.062 19.87h1.007c.159 0 .282.133.282.283v6.277a.279.279 0 0 1-.282.282h-1.007a.28.28 0 0 1-.282-.282v-6.277c0-.16.123-.283.282-.283ZM15.895 25.132h2.746c.15 0 .273.133.273.283v1.006a.279.279 0 0 1-.282.283h-4.035a.298.298 0 0 1-.194-.08.26.26 0 0 1-.08-.194v-6.277c0-.16.124-.283.283-.283h1.006c.16 0 .283.124.283.283v4.98ZM29.57 19.87h4.036c.15 0 .273.133.282.283v1.006a.279.279 0 0 1-.282.283H30.86V22.5h2.746c.159 0 .282.124.282.283v1.015a.279.279 0 0 1-.282.282H30.86v1.06h2.746c.159 0 .282.124.282.282v1.007a.279.279 0 0 1-.282.282H29.57a.285.285 0 0 1-.283-.282v-6.277c0-.16.133-.283.283-.283Z"/></g></svg>
